X:24
T:Frothing at the Mind
R:reel
C: 1977, 2010 L.E. McCullough  
M:4/4 
L:1/8
K:G
|:~e3g edBA|G~A3 B~A3|e~g3 gedB|~G2BG AGED|
~e3g edBA|G~A3 BAGE|D~E3 ~G3A|BedB ~A3d:|
|:~e3g ~a3g|e~g3 gedB|~e3g edBA|~G2BG AGED|
~E3G ~A3B|dege aged|e~g3 edBA|BedB ~A3d:|



